assets/svg/1F40B.svg

<svg xmlns="http://www.w3.org/2000/svg" viewBox="0 0 64 64" enable-background="new 0 0 64 64"><g fill="#378aa7"><path d="m41.21 59.951c32.25 1.389 15.97-50.11 12.279-43.03-4.838 9.28 2.409 16.183-23.26 22.871-4.163 5.089-4.31 14.473 10.981 20.16"/><path d="m53.821 18.04c-1.185-9.595 10.292-10.449 10.09-8.775-.644 5.228-9.874 10.523-10.09 8.775"/><path d="m53.814 18.04c-.737-9.622-12.246-9.07-11.711-7.439 1.68 5.089 11.848 9.194 11.711 7.439"/></g><path fill="#5e9abb" d="m37.39 25.544c-15.681-8.464-34.1-4.902-36.816 11.04-.318 1.864 1.36 6.897 4.234 5.368 11.695-6.224 34.815 6.352 34.931 6.464 3.043 2.952 6.601 8.511 11.09 8.511 3.49 0 3.593-4.206 3.654-7.54.113-6.293-4.648-17.13-17.1-23.843"/><g fill="#95bfd0"><path d="m50 61.23c1.869-1.397.884-6.07-1.106-9.194-8.147-12.817-35.36-17.234-41.82-14.826-5.647 2.106-8.448 11.735 16.641 21.764 12.415 4.964 25.07 2.848 26.28 2.256"/><path d="m29.383 57.951c-5.306-9.477-21.854.359-20.355 1.629 4.682 3.976 21.321.1 20.355-1.629"/></g><path fill="#82a4aa" d="m50.972 57.847c-.025.614-.116 1.157-.263 1.647.329.024.445-.995.263-1.647"/><path fill="#88b2c0" d="m50.728 58.48c-5.963-3.157-11.595-6.265-16.82-10.362-4.059-3.187-7.52-6.853-11.23-10.333-.788-.163-1.561-.304-2.322-.432 4.931 4.347 9.272 9.09 14.493 13.185 4.841 3.795 10.282 6.634 15.81 9.563.027.016.052.008.077.008.137-.377.218-.801.239-1.271-.057-.163-.135-.294-.247-.358"/><path fill="#82a4aa" d="m31.29 61.34c.61.229 5.297.866 4.75.66-.004-.003-.001-.003-.016-.007-1.514-.132-3.107-.346-4.747-.656.005 0 .009.003.013.003"/><path fill="#88b2c0" d="m19.878 49.15c-2.995-4.091-5.089-7.494-6.161-12.376-.016-.063-.062-.105-.094-.154-.895-.036-1.732-.04-2.505-.017-.159.112-.268.236-.237.369 1.119 5.096 4.317 9.225 7.583 13.443 3.439 4.447 8.366 9.109 14.607 11.12 1.49.241 2.938.404 4.316.509-6.01-1.934-14.317-8.522-17.509-12.891"/><path fill="#82a4aa" d="m24.733 59.57c-.02-.016-.039-.03-.063-.042-1.224-.439-2.451-.921-3.68-1.5.558.266 4.232 1.898 3.743 1.542"/><path fill="#88b2c0" d="m6.084 37.683c0 0 0 0 0-.003-.458.264-.878.582-1.251.951-.004.034-.016.069-.018.109-.159 3.444 1.975 6.793 4.151 9.594 4.263 5.489 7.738 7.832 14.752 10.643 1.119.447 2.233.82 3.349 1.158-7.773-4.763-18.955-10.573-20.983-22.452"/><path fill="#95bfd0" d="m40.628 59.11c5.31-9.479 21.854.355 20.354 1.626-4.681 3.982-21.317.102-20.354-1.626"/><ellipse fill="#fff" cx="47.631" cy="40.23" rx="4.02" ry="5.147"/><ellipse fill="#25333a" cx="47.632" cy="40.23" rx="2.603" ry="3.153"/></svg>

<?xml version="1.0" encoding="UTF-8" standalone="no"?>
<!-- Generator: Adobe Illustrator 16.0.0, SVG Export Plug-In . SVG Version: 6.00 Build 0)  -->

<svg
   xmlns:dc="http://purl.org/dc/elements/1.1/"
   xmlns:cc="http://creativecommons.org/ns#"
   xmlns:rdf="http://www.w3.org/1999/02/22-rdf-syntax-ns#"
   xmlns:svg="http://www.w3.org/2000/svg"
   xmlns="http://www.w3.org/2000/svg"
   xmlns:sodipodi="http://sodipodi.sourceforge.net/DTD/sodipodi-0.dtd"
   xmlns:inkscape="http://www.inkscape.org/namespaces/inkscape"
   version="1.1"
   id="Layer_1"
   x="0px"
   y="0px"
   width="64px"
   height="64px"
   viewBox="0 0 64 64"
   enable-background="new 0 0 64 64"
   xml:space="preserve"
   inkscape:version="0.48.5 r10040"
   sodipodi:docname="1F40B.svg"
   inkscape:export-filename="D:\TESTINGEMOJI\SVGTEST\1F40B.png"
   inkscape:export-xdpi="90"
   inkscape:export-ydpi="90"><metadata
   id="metadata5971"><rdf:RDF><cc:Work
       rdf:about=""><dc:format>image/svg+xml</dc:format><dc:type
         rdf:resource="http://purl.org/dc/dcmitype/StillImage" /><dc:title></dc:title></cc:Work></rdf:RDF></metadata><defs
   id="defs5969" /><sodipodi:namedview
   pagecolor="#ffffff"
   bordercolor="#666666"
   borderopacity="1"
   objecttolerance="10"
   gridtolerance="10"
   guidetolerance="10"
   inkscape:pageopacity="0"
   inkscape:pageshadow="2"
   inkscape:window-width="640"
   inkscape:window-height="480"
   id="namedview5967"
   showgrid="false"
   inkscape:zoom="3.6875"
   inkscape:cx="32"
   inkscape:cy="32"
   inkscape:window-x="433"
   inkscape:window-y="276"
   inkscape:window-maximized="0"
   inkscape:current-layer="Layer_1" />
<g
   id="g5903">
	<path
   fill="#378AA7"
   d="M41.213,59.951c32.246,1.389,15.97-50.107,12.279-43.03c-4.838,9.28,2.409,16.183-23.26,22.871   C26.069,44.881,25.922,54.265,41.213,59.951z"
   id="path5905" />
</g>
<g
   id="g5907">
	<g
   id="g5909">
		<path
   fill="#378AA7"
   d="M53.821,18.044C52.636,8.449,64.113,7.595,63.91,9.269C63.266,14.497,54.036,19.792,53.821,18.044z"
   id="path5911" />
	</g>
	<g
   id="g5913">
		<path
   fill="#378AA7"
   d="M53.814,18.044c-0.737-9.622-12.246-9.066-11.711-7.439C43.783,15.694,53.951,19.799,53.814,18.044z"
   id="path5915" />
	</g>
</g>
<g
   id="g5917">
	<path
   fill="#5E9ABB"
   d="M37.388,25.544C21.707,17.08,3.283,20.642,0.572,36.584c-0.318,1.864,1.36,6.897,4.234,5.368   c11.695-6.224,34.815,6.352,34.931,6.464c3.043,2.952,6.601,8.511,11.095,8.511c3.49,0,3.593-4.206,3.654-7.54   C54.599,43.094,49.838,32.261,37.388,25.544z"
   id="path5919" />
</g>
<g
   id="g5921">
	<path
   fill="#95BFD0"
   d="M50.004,61.233c1.869-1.397,0.884-6.066-1.106-9.194C40.751,39.222,13.536,34.805,7.078,37.213   C1.431,39.319-1.37,48.948,23.719,58.977C36.134,63.941,48.791,61.825,50.004,61.233z"
   id="path5923" />
</g>
<g
   id="g5925">
	<path
   fill="#95BFD0"
   d="M29.383,57.951C24.077,48.474,7.529,58.31,9.028,59.58C13.71,63.556,30.349,59.68,29.383,57.951z"
   id="path5927" />
</g>
<g
   id="g5929">
	<path
   fill="#82A4AA"
   d="M50.972,57.847c-0.025,0.614-0.116,1.157-0.263,1.647C51.038,59.518,51.154,58.499,50.972,57.847z"
   id="path5931" />
</g>
<g
   id="g5933">
	<path
   fill="#88B2C0"
   d="M50.728,58.483c-5.963-3.157-11.595-6.265-16.82-10.362c-4.059-3.187-7.52-6.853-11.23-10.333   c-0.788-0.163-1.561-0.304-2.322-0.432c4.931,4.347,9.272,9.089,14.493,13.185c4.841,3.795,10.282,6.634,15.81,9.563   c0.027,0.016,0.052,0.008,0.077,0.008c0.137-0.377,0.218-0.801,0.239-1.271C50.918,58.678,50.84,58.547,50.728,58.483z"
   id="path5935" />
</g>
<g
   id="g5937">
	<path
   fill="#82A4AA"
   d="M31.29,61.343c0.61,0.229,5.297,0.866,4.75,0.66C36.036,62,36.03,62,36.024,61.996   c-1.514-0.132-3.107-0.346-4.747-0.656C31.282,61.34,31.286,61.343,31.29,61.343z"
   id="path5939" />
</g>
<g
   id="g5941">
	<path
   fill="#88B2C0"
   d="M19.878,49.15c-2.995-4.091-5.089-7.494-6.161-12.376c-0.016-0.063-0.062-0.105-0.094-0.154   c-0.895-0.036-1.732-0.04-2.505-0.017c-0.159,0.112-0.268,0.236-0.237,0.369c1.119,5.096,4.317,9.225,7.583,13.443   c3.439,4.447,8.366,9.109,14.607,11.117c1.49,0.241,2.938,0.404,4.316,0.509C31.379,60.107,23.07,53.519,19.878,49.15z"
   id="path5943" />
</g>
<g
   id="g5945">
	<path
   fill="#82A4AA"
   d="M24.733,59.567c-0.02-0.016-0.039-0.03-0.063-0.042c-1.224-0.439-2.451-0.921-3.68-1.5   C21.548,58.291,25.222,59.923,24.733,59.567z"
   id="path5947" />
</g>
<g
   id="g5949">
	<path
   fill="#88B2C0"
   d="M6.084,37.683c0,0,0,0,0-0.003c-0.458,0.264-0.878,0.582-1.251,0.951C4.829,38.665,4.817,38.7,4.815,38.74   c-0.159,3.444,1.975,6.793,4.151,9.594c4.263,5.489,7.738,7.832,14.752,10.643c1.119,0.447,2.233,0.82,3.349,1.158   C19.294,55.372,8.112,49.562,6.084,37.683z"
   id="path5951" />
</g>
<g
   id="g5953">
	<path
   fill="#95BFD0"
   d="M40.628,59.11c5.31-9.479,21.854,0.355,20.354,1.626C56.301,64.718,39.665,60.838,40.628,59.11z"
   id="path5955" />
</g>
<g
   id="g5957">
	<g
   id="g5959">
		<ellipse
   fill="#FFFFFF"
   cx="47.631"
   cy="40.228"
   rx="4.02"
   ry="5.147"
   id="ellipse5961" />
	</g>
	<g
   id="g5963">
		<ellipse
   fill="#25333A"
   cx="47.632"
   cy="40.228"
   rx="2.603"
   ry="3.153"
   id="ellipse5965" />
	</g>
</g>
</svg>
